X: 2
T: Jos sais kerran reissullansa
O: Trad Finland
Z: John Chambers <jc@trillian.mit.edu>
M: 2/4
L: 1/16
K: D
|: "D"D2F2 A2D2 | "A7"D2C2 C2C2 | A,2CC E2GG | "D"F2D2 D4 :|
|: "D"A2FA "G"d2c2 | "D"B2A2 F2D2 | "Em"F2EF "A7"GGC2 | "D"E2D2 D4 :|
